flaticon/medical/epidermis.svg

<svg xmlns="http://www.w3.org/2000/svg" width="32" height="32" viewBox="0 0 24 24">
    <path d="M18.398438 17.601562C18.398438 17.820312 18.222656 18 18 18 17.777344 18 17.601562 17.820312 17.601562 17.601562 17.601562 17.378906 17.777344 17.199219 18 17.199219 18.222656 17.199219 18.398438 17.378906 18.398438 17.601562zM20.398438 18.398438C20.398438 18.621094 20.222656 18.800781 20 18.800781 19.777344 18.800781 19.601562 18.621094 19.601562 18.398438 19.601562 18.179688 19.777344 18 20 18 20.222656 18 20.398438 18.179688 20.398438 18.398438zM17.601562 19.601562C17.601562 19.820312 17.421875 20 17.199219 20 16.980469 20 16.800781 19.820312 16.800781 19.601562 16.800781 19.378906 16.980469 19.199219 17.199219 19.199219 17.421875 19.199219 17.601562 19.378906 17.601562 19.601562zM16.398438 17.199219C16.398438 17.421875 16.222656 17.601562 16 17.601562 15.777344 17.601562 15.601562 17.421875 15.601562 17.199219 15.601562 16.980469 15.777344 16.800781 16 16.800781 16.222656 16.800781 16.398438 16.980469 16.398438 17.199219zM16 21.199219C16 21.421875 15.820312 21.601562 15.601562 21.601562 15.378906 21.601562 15.199219 21.421875 15.199219 21.199219 15.199219 20.980469 15.378906 20.800781 15.601562 20.800781 15.820312 20.800781 16 20.980469 16 21.199219zM8.398438 16.800781C8.398438 17.019531 8.222656 17.199219 8 17.199219 7.777344 17.199219 7.601562 17.019531 7.601562 16.800781 7.601562 16.578125 7.777344 16.398438 8 16.398438 8.222656 16.398438 8.398438 16.578125 8.398438 16.800781zM7.199219 20C7.199219 20.222656 7.019531 20.398438 6.800781 20.398438 6.578125 20.398438 6.398438 20.222656 6.398438 20 6.398438 19.777344 6.578125 19.601562 6.800781 19.601562 7.019531 19.601562 7.199219 19.777344 7.199219 20zM6.800781 18C6.800781 18.222656 6.621094 18.398438 6.398438 18.398438 6.179688 18.398438 6 18.222656 6 18 6 17.777344 6.179688 17.601562 6.398438 17.601562 6.621094 17.601562 6.800781 17.777344 6.800781 18zM4.398438 18C4.398438 18.222656 4.222656 18.398438 4 18.398438 3.777344 18.398438 3.601562 18.222656 3.601562 18 3.601562 17.777344 3.777344 17.601562 4 17.601562 4.222656 17.601562 4.398438 17.777344 4.398438 18zM3.199219 16.398438C3.199219 16.621094 3.019531 16.800781 2.800781 16.800781 2.578125 16.800781 2.398438 16.621094 2.398438 16.398438 2.398438 16.179688 2.578125 16 2.800781 16 3.019531 16 3.199219 16.179688 3.199219 16.398438zM10.515625 18.234375C10.320312 18.726562 10.378906 19.285156 10.675781 19.722656 10.972656 20.164062 11.46875 20.425781 12 20.425781 12.53125 20.425781 13.027344 20.164062 13.324219 19.722656 13.621094 19.285156 13.683594 18.726562 13.484375 18.234375L12.398438 15.523438 12.398438 3.199219C12.398438 2.980469 12.222656 2.800781 12 2.800781 11.777344 2.800781 11.601562 2.980469 11.601562 3.199219L11.601562 15.523438zM12.660156 19.273438C12.511719 19.5 12.269531 19.625 12 19.625 11.730469 19.625 11.488281 19.5 11.339844 19.273438 11.1875 19.050781 11.160156 18.78125 11.257812 18.53125L12 16.675781 12.742188 18.53125C12.839844 18.78125 12.8125 19.054688 12.660156 19.273438zM12.660156 19.273438"/>
    <path d="M 23.996094 12.398438 L 23.988281 12.398438 C 23.996094 12.265625 24 12.132812 24 12 C 24 5.382812 18.617188 0 12 0 C 5.382812 0 0 5.382812 0 12 C 0 12.132812 0.00390625 12.265625 0.0117188 12.398438 L 0.00390625 12.398438 L 0.015625 12.585938 C 0.0195312 12.648438 0.0234375 12.710938 0.0273438 12.773438 L 0.03125 12.828125 C 0.03125 12.835938 0.03125 12.847656 0.0351562 12.855469 C 0.046875 13.039062 0.0625 13.21875 0.0859375 13.402344 C 0.0859375 13.410156 0.0859375 13.421875 0.0898438 13.433594 C 0.109375 13.617188 0.136719 13.800781 0.164062 13.980469 C 0.167969 13.988281 0.167969 13.992188 0.167969 14 C 0.222656 14.304688 0.28125 14.609375 0.359375 14.90625 L 0.355469 14.910156 L 0.4375 15.203125 C 0.441406 15.222656 0.449219 15.238281 0.453125 15.257812 C 0.539062 15.558594 0.632812 15.859375 0.742188 16.152344 C 0.742188 16.160156 0.746094 16.164062 0.75 16.171875 C 0.851562 16.445312 0.964844 16.710938 1.082031 16.972656 C 1.105469 17.023438 1.128906 17.074219 1.148438 17.121094 C 1.265625 17.367188 1.394531 17.609375 1.527344 17.847656 C 1.5625 17.914062 1.601562 17.976562 1.636719 18.039062 C 1.773438 18.273438 1.914062 18.503906 2.066406 18.726562 C 2.097656 18.769531 2.128906 18.8125 2.160156 18.855469 C 2.300781 19.058594 2.449219 19.257812 2.601562 19.449219 C 2.636719 19.492188 2.667969 19.535156 2.703125 19.578125 C 2.878906 19.792969 3.066406 20.003906 3.257812 20.207031 C 3.289062 20.242188 3.324219 20.28125 3.359375 20.316406 C 3.566406 20.527344 3.777344 20.734375 3.996094 20.933594 C 3.996094 20.933594 3.996094 20.933594 4 20.933594 C 5.441406 22.226562 7.195312 23.175781 9.136719 23.652344 C 9.148438 23.65625 9.160156 23.65625 9.171875 23.660156 C 9.339844 23.703125 9.511719 23.738281 9.683594 23.773438 C 9.714844 23.78125 9.75 23.785156 9.78125 23.792969 C 9.847656 23.804688 9.917969 23.816406 9.984375 23.828125 C 10.003906 23.832031 10.019531 23.835938 10.039062 23.835938 C 10.105469 23.847656 10.175781 23.859375 10.242188 23.871094 C 10.300781 23.878906 10.363281 23.886719 10.421875 23.894531 C 10.550781 23.910156 10.683594 23.929688 10.816406 23.941406 C 10.859375 23.945312 10.90625 23.949219 10.949219 23.953125 C 10.996094 23.957031 11.039062 23.957031 11.085938 23.960938 C 11.09375 23.960938 11.101562 23.964844 11.109375 23.964844 C 11.207031 23.972656 11.304688 23.980469 11.402344 23.984375 C 11.597656 23.996094 11.800781 24 12 24 C 12.199219 24 12.402344 23.996094 12.597656 23.984375 C 12.695312 23.980469 12.792969 23.972656 12.886719 23.964844 C 12.902344 23.960938 12.914062 23.960938 12.929688 23.960938 C 12.984375 23.957031 13.042969 23.953125 13.097656 23.949219 C 13.128906 23.945312 13.15625 23.945312 13.183594 23.941406 C 13.316406 23.929688 13.445312 23.910156 13.578125 23.894531 C 13.636719 23.886719 13.699219 23.878906 13.757812 23.871094 C 13.820312 23.859375 13.878906 23.851562 13.941406 23.839844 C 14.03125 23.824219 14.125 23.808594 14.214844 23.792969 C 14.214844 23.792969 14.214844 23.792969 14.21875 23.792969 C 14.25 23.785156 14.28125 23.78125 14.316406 23.773438 C 14.488281 23.738281 14.660156 23.703125 14.828125 23.660156 C 14.839844 23.65625 14.847656 23.65625 14.859375 23.652344 C 15.019531 23.613281 15.175781 23.570312 15.332031 23.523438 C 15.457031 23.488281 15.578125 23.453125 15.695312 23.414062 C 18.761719 22.429688 21.304688 20.25 22.742188 17.339844 C 22.804688 17.21875 22.859375 17.09375 22.917969 16.972656 C 22.96875 16.855469 23.023438 16.738281 23.074219 16.621094 C 23.175781 16.375 23.269531 16.121094 23.359375 15.863281 C 23.375 15.8125 23.394531 15.761719 23.410156 15.710938 C 23.507812 15.410156 23.59375 15.105469 23.667969 14.796875 C 23.667969 14.789062 23.671875 14.78125 23.675781 14.773438 L 23.726562 14.554688 L 23.722656 14.550781 C 23.765625 14.371094 23.800781 14.183594 23.832031 14 C 23.832031 13.992188 23.832031 13.988281 23.832031 13.980469 C 23.863281 13.800781 23.890625 13.617188 23.910156 13.433594 C 23.914062 13.421875 23.914062 13.410156 23.914062 13.402344 C 23.9375 13.21875 23.953125 13.039062 23.964844 12.855469 C 23.96875 12.847656 23.96875 12.835938 23.96875 12.828125 L 23.972656 12.773438 C 23.976562 12.710938 23.980469 12.648438 23.984375 12.585938 Z M 10.398438 14.320312 L 10.160156 14.902344 C 9.78125 14.953125 9.40625 14.839844 9.132812 14.570312 L 8.933594 14.367188 C 8.144531 13.578125 6.859375 13.578125 6.070312 14.367188 L 5.871094 14.570312 C 5.394531 15.046875 4.617188 15.046875 4.140625 14.570312 L 3.933594 14.363281 C 3.144531 13.574219 1.859375 13.574219 1.070312 14.363281 L 1.058594 14.375 C 0.976562 13.992188 0.910156 13.597656 0.867188 13.199219 L 9.40625 13.199219 C 9.953125 13.199219 10.398438 13.644531 10.398438 14.195312 Z M 11.167969 23.164062 C 11.117188 23.160156 11.070312 23.160156 11.023438 23.15625 C 10.761719 23.132812 10.5 23.097656 10.242188 23.058594 C 10.203125 23.050781 10.160156 23.042969 10.121094 23.039062 C 9.851562 22.992188 9.585938 22.9375 9.324219 22.875 C 9.304688 22.867188 9.28125 22.863281 9.261719 22.855469 C 8.992188 22.789062 8.726562 22.710938 8.464844 22.625 C 8.457031 22.621094 8.453125 22.621094 8.445312 22.617188 C 8.191406 22.53125 7.941406 22.433594 7.695312 22.332031 C 7.652344 22.316406 7.609375 22.296875 7.570312 22.277344 C 7.339844 22.179688 7.117188 22.074219 6.894531 21.960938 C 6.839844 21.929688 6.785156 21.902344 6.730469 21.871094 C 6.519531 21.757812 6.3125 21.640625 6.109375 21.515625 C 6.050781 21.476562 5.992188 21.4375 5.929688 21.398438 C 5.777344 21.300781 5.628906 21.199219 5.484375 21.09375 C 5.386719 21.023438 5.292969 20.953125 5.199219 20.882812 C 5.0625 20.777344 4.933594 20.671875 4.800781 20.5625 C 4.710938 20.488281 4.621094 20.410156 4.53125 20.332031 C 4.394531 20.210938 4.261719 20.082031 4.128906 19.953125 C 4.035156 19.859375 3.941406 19.761719 3.847656 19.664062 C 3.777344 19.589844 3.710938 19.511719 3.640625 19.433594 C 3.5 19.277344 3.363281 19.113281 3.230469 18.945312 C 3.171875 18.875 3.113281 18.796875 3.058594 18.722656 C 2.929688 18.558594 2.808594 18.386719 2.695312 18.210938 C 2.632812 18.121094 2.570312 18.027344 2.511719 17.933594 C 2.441406 17.824219 2.375 17.714844 2.308594 17.601562 C 2.210938 17.433594 2.121094 17.265625 2.03125 17.089844 C 1.980469 16.992188 1.929688 16.890625 1.882812 16.789062 C 1.792969 16.597656 1.703125 16.402344 1.621094 16.203125 C 1.59375 16.128906 1.5625 16.050781 1.535156 15.976562 C 1.457031 15.773438 1.386719 15.566406 1.320312 15.355469 C 1.308594 15.324219 1.296875 15.292969 1.289062 15.261719 C 1.339844 15.222656 1.386719 15.179688 1.433594 15.132812 L 1.636719 14.929688 C 2.101562 14.464844 2.90625 14.464844 3.371094 14.929688 L 3.574219 15.132812 C 3.957031 15.515625 4.464844 15.726562 5.007812 15.726562 C 5.546875 15.726562 6.054688 15.515625 6.4375 15.132812 L 6.636719 14.933594 C 7.117188 14.457031 7.894531 14.457031 8.371094 14.933594 L 8.570312 15.132812 C 8.902344 15.46875 9.339844 15.667969 9.800781 15.710938 L 9.03125 17.640625 C 8.636719 18.625 8.753906 19.742188 9.351562 20.621094 C 9.945312 21.5 10.9375 22.027344 12 22.027344 C 13.0625 22.027344 14.054688 21.5 14.648438 20.621094 C 15.246094 19.742188 15.363281 18.625 14.96875 17.640625 L 14.96875 17.636719 L 14.964844 17.625 L 14.125 15.523438 C 14.878906 15.890625 15.8125 15.757812 16.4375 15.132812 C 16.914062 14.65625 17.691406 14.65625 18.167969 15.132812 C 18.550781 15.515625 19.058594 15.726562 19.597656 15.726562 C 20.140625 15.726562 20.648438 15.515625 21.03125 15.132812 L 21.238281 14.929688 C 21.671875 14.492188 22.359375 14.453125 22.835938 14.8125 C 22.828125 14.851562 22.816406 14.886719 22.808594 14.921875 C 22.75 15.140625 22.683594 15.351562 22.613281 15.558594 C 22.566406 15.695312 22.519531 15.828125 22.46875 15.960938 C 22.425781 16.082031 22.375 16.203125 22.328125 16.320312 C 21.027344 19.414062 18.378906 21.792969 15.144531 22.746094 C 15.125 22.75 15.105469 22.757812 15.085938 22.761719 C 15.082031 22.765625 15.078125 22.765625 15.074219 22.765625 C 14.929688 22.808594 14.78125 22.847656 14.632812 22.882812 C 14.617188 22.886719 14.601562 22.890625 14.589844 22.894531 C 14.410156 22.9375 14.226562 22.976562 14.046875 23.007812 C 14.023438 23.011719 14.003906 23.015625 13.980469 23.019531 C 13.902344 23.035156 13.820312 23.046875 13.738281 23.0625 C 13.503906 23.097656 13.265625 23.128906 13.027344 23.148438 C 12.96875 23.15625 12.90625 23.160156 12.847656 23.164062 C 12.566406 23.1875 12.285156 23.199219 12 23.199219 C 11.71875 23.199219 11.441406 23.1875 11.167969 23.164062 Z M 13.601562 14.199219 L 13.601562 14.195312 C 13.601562 13.644531 14.046875 13.199219 14.59375 13.199219 L 23.132812 13.199219 C 23.105469 13.46875 23.0625 13.734375 23.015625 13.996094 C 22.257812 13.613281 21.304688 13.726562 20.671875 14.363281 L 20.464844 14.570312 C 20.003906 15.03125 19.195312 15.03125 18.734375 14.570312 C 17.945312 13.78125 16.660156 13.777344 15.871094 14.570312 C 15.394531 15.046875 14.617188 15.046875 14.140625 14.570312 L 13.703125 14.144531 Z M 0.800781 12 C 0.800781 5.824219 5.824219 0.800781 12 0.800781 C 18.175781 0.800781 23.199219 5.824219 23.199219 12 C 23.199219 12.132812 23.195312 12.265625 23.191406 12.398438 L 14.59375 12.398438 C 13.605469 12.398438 12.800781 13.207031 12.800781 14.195312 L 12.800781 14.476562 L 14.226562 17.9375 C 14.523438 18.675781 14.433594 19.511719 13.988281 20.171875 C 13.539062 20.832031 12.796875 21.226562 12 21.226562 C 11.203125 21.226562 10.460938 20.832031 10.011719 20.171875 C 9.566406 19.511719 9.476562 18.679688 9.773438 17.9375 L 11.199219 14.480469 L 11.199219 14.195312 C 11.199219 13.207031 10.394531 12.398438 9.40625 12.398438 L 0.808594 12.398438 C 0.804688 12.265625 0.800781 12.132812 0.800781 12 Z M 0.800781 12"/>
</svg>

<svg xmlns="http://www.w3.org/2000/svg" width="32" height="32" viewBox="0 0 24 24">
    <path d="M18.398 17.602a.398.398 0 1 1-.796 0 .398.398 0 1 1 .796 0zm0 0M20.398 18.398a.398.398 0 1 1-.796 0 .398.398 0 1 1 .796 0zm0 0M17.602 19.602a.401.401 0 1 1-.802-.005.401.401 0 0 1 .802.005zm0 0M16.398 17.2a.398.398 0 1 1-.796 0 .398.398 0 1 1 .796 0zm0 0M16 21.2a.401.401 0 1 1-.802.002.401.401 0 0 1 .802-.003zm0 0M8.398 16.8a.398.398 0 1 1-.796 0 .398.398 0 1 1 .796 0zm0 0M7.2 20c0 .223-.18.398-.4.398a.398.398 0 1 1 0-.796c.22 0 .4.175.4.398zm0 0M6.8 18c0 .223-.179.398-.402.398a.398.398 0 1 1 0-.796c.223 0 .403.175.403.398zm0 0M4.398 18a.395.395 0 0 1-.398.398.395.395 0 0 1-.398-.398c0-.223.175-.398.398-.398.223 0 .398.175.398.398zm0 0M3.2 16.398a.401.401 0 1 1-.803.003.401.401 0 0 1 .802-.003zm0 0M10.516 18.234A1.601 1.601 0 0 0 12 20.426c.531 0 1.027-.262 1.324-.703a1.59 1.59 0 0 0 .16-1.489l-1.086-2.71V3.198a.398.398 0 1 0-.796 0v12.324zm2.144 1.04a.774.774 0 0 1-.66.351.774.774 0 0 1-.66-.352.786.786 0 0 1-.082-.742L12 16.676l.742 1.855c.098.25.07.524-.082.742zm0 0"/>
    <path d="M23.996 12.398h-.008c.008-.132.012-.265.012-.398 0-6.617-5.383-12-12-12S0 5.383 0 12c0 .133.004.266.012.398H.004l.012.188.011.187.004.055c0 .008 0 .02.004.027a8.62 8.62 0 0 0 .055.579A12.284 12.284 0 0 0 .168 14c.055.305.113.61.191.906l-.004.004.083.293c.003.02.011.035.015.055.086.3.18.601.29.894 0 .008.003.012.007.02a13.242 13.242 0 0 0 .398.95c.118.245.247.487.38.726.034.066.074.129.109.191.136.234.277.465.43.688.03.043.062.085.093.128.14.204.29.403.442.594.035.043.066.086.101.13a12.043 12.043 0 0 0 .656.737c.207.211.418.418.637.618H4a11.962 11.962 0 0 0 5.137 2.718c.011.004.023.004.035.008.168.043.34.078.512.113.03.008.066.012.097.02l.203.035c.02.004.036.008.055.008l.203.035.18.024c.129.015.262.035.394.046l.133.012c.047.004.09.004.137.008.008 0 .016.004.023.004A10.084 10.084 0 0 0 12 24a10.084 10.084 0 0 0 .888-.035c.015-.004.027-.004.043-.004l.168-.012c.03-.004.058-.004.086-.008.132-.011.261-.03.394-.046l.18-.024c.062-.012.12-.02.183-.031l.274-.047h.004c.031-.008.062-.012.097-.02.172-.035.344-.07.512-.113.012-.004.02-.004.031-.008.16-.039.317-.082.473-.129a11.912 11.912 0 0 0 7.41-6.184c.063-.12.117-.245.176-.366.05-.118.105-.235.156-.352.102-.246.196-.5.285-.758.016-.05.036-.101.051-.152.098-.3.184-.606.258-.914 0-.008.004-.016.008-.024l.05-.218-.003-.004c.043-.18.078-.367.109-.551v-.02c.031-.18.059-.363.078-.546.004-.012.004-.024.004-.032a8.62 8.62 0 0 0 .05-.547c.005-.007.005-.02.005-.027l.004-.055.011-.187zM10.398 14.32l-.238.582a1.215 1.215 0 0 1-1.027-.332l-.2-.203a2.028 2.028 0 0 0-2.863 0l-.199.203a1.226 1.226 0 0 1-1.73 0l-.207-.207a2.028 2.028 0 0 0-2.864 0l-.011.012a11.526 11.526 0 0 1-.192-1.176h8.54c.546 0 .991.446.991.996zm.77 8.844c-.05-.004-.098-.004-.145-.008a12.927 12.927 0 0 1-.902-.117c-.27-.047-.535-.102-.797-.164-.02-.008-.043-.012-.062-.02-.27-.066-.535-.144-.797-.23l-.02-.008a12.35 12.35 0 0 1-1.55-.656l-.165-.09c-.21-.113-.418-.23-.62-.355a7.186 7.186 0 0 0-.18-.118c-.153-.097-.301-.199-.446-.304-.097-.07-.191-.14-.285-.211-.136-.106-.265-.211-.398-.32-.09-.075-.18-.153-.27-.231-.136-.121-.27-.25-.402-.379a19.9 19.9 0 0 1-.281-.289c-.07-.074-.137-.152-.207-.23a10.028 10.028 0 0 1-.582-.711 6.728 6.728 0 0 1-.364-.512 9.402 9.402 0 0 1-.664-1.121 13.304 13.304 0 0 1-.41-.887c-.027-.074-.058-.152-.086-.226-.078-.204-.148-.41-.215-.622-.011-.03-.023-.062-.03-.093.05-.04.097-.082.144-.13l.203-.202a1.253 1.253 0 0 1 1.734 0l.203.203c.383.383.89.594 1.434.594.539 0 1.047-.211 1.43-.594l.199-.2a1.23 1.23 0 0 1 1.734 0l.2.2c.331.336.769.535 1.23.578l-.77 1.93a3.196 3.196 0 0 0 5.617 2.98 3.189 3.189 0 0 0 .32-2.98v-.004l-.003-.012-.84-2.102a2.021 2.021 0 0 0 2.313-.39 1.226 1.226 0 0 1 1.73 0c.383.383.89.594 1.43.594.543 0 1.05-.211 1.433-.594l.207-.203a1.222 1.222 0 0 1 1.598-.117c-.008.039-.02.074-.027.109a12.195 12.195 0 0 1-.34 1.04c-.043.12-.094.241-.14.358a11.275 11.275 0 0 1-7.184 6.426c-.02.004-.04.012-.06.016-.003.004-.007.004-.01.004a8.13 8.13 0 0 1-.442.117l-.043.012c-.18.043-.363.082-.543.113l-.067.012c-.078.015-.16.027-.242.043a10.7 10.7 0 0 1-.71.085c-.06.008-.122.012-.18.016a10.18 10.18 0 0 1-1.68 0zm2.434-8.965v-.004c0-.55.445-.996.992-.996h8.539c-.028.27-.07.535-.117.797a2.02 2.02 0 0 0-2.344.367l-.207.207c-.461.461-1.27.461-1.73 0a2.024 2.024 0 0 0-2.864 0 1.226 1.226 0 0 1-1.73 0l-.438-.425zM.8 12C.8 5.824 5.824.8 12 .8S23.2 5.825 23.2 12c0 .133-.005.266-.009.398h-8.597c-.989 0-1.793.809-1.793 1.797v.282l1.426 3.46A2.395 2.395 0 0 1 12 21.227a2.394 2.394 0 0 1-2.227-3.29L11.2 14.48v-.285c0-.988-.804-1.797-1.793-1.797H.81C.805 12.266.8 12.133.8 12zm0 0"/>
</svg>
